X:1
T:The Rich Merchant
M:3/4
L:1/4
K:C
 G| G E C| G G3/2 G/2| F E D| C2 G| G A B| c d3/2 B/2| c E F| G2 G|\
 G A B| c c B/2B/2| c E F| G2 E/2F/2| G3/2 G/2G/2 G/2| E C3/2 E/2|\
 D C B,| C2||
